X: 513
T: Norry's Lake
R: jig
B: "Preston's Twenty Four Country Dances for the Year 1804", Tho. Preston, ed. p.217 #513
F: http://imslp.org/wiki/24_Country_Dances_for_the_Year_1804_(Preston_(publisher),_Thomas)
M: 6/8
L: 1/8
K: G
c |\
BAG FEF | DED FED | ABA AFD | TF3 A3 |\
BAG FEF | DED FED | BdB cAF | G3 [G2G,2] :|
|: D |\
GBd gdB | ecA dBG | BdB cAG | FDF AGF |\
GBd gdB | ecA dBG | BdB cAF | G3 [G2G,2] :|
% - - - - - - - - - - - - - - - - - - - - - - - - -
%%begintext align
%% Lead twice down the middle up again,
%% Allemande, foot it & swing corners.
%%endtext

%%sep 1 1 500
